X: 8038
T: Connie In The Pool
R: polka
M: 2/4
K: Amajor
e>f ed|cd ec|d>c dc|Bc df|
e>f ed|cd ec|d>c dB|1 A2 A2:|2 A2 Ae||
ae cA|GA Bc|d>c de|fe ce|
ae cA|GA Bc|d>B cB|1 A2 Ae:|2 A2 A2||

